X:1921
T:Paddy Fahy's reel (number 1) Another version
O:ireland
C:Paddy Fahy
S:Ir-Trad, Jeff Weismiller, 3/97
M:4/4
L:1/8
K:Ddor
DCA,D FEFG|AdcA d2de|f2gf edcA|dcAG (3FED EC|
DCA,D FEFG|AdcA  d2de|f2gf edcA |1 d3d d4:|2d3d d2 (3AB^c|
|:~d2 ^fd adfd|(3cBc Gc EcGc|~d2 ^fd adfd|~c2Bc A4|a2^ga ABcA|
(3dcB AG FDEC|DCA,D FEFG|AdcA d4 :|
